swiss/communes/5214.svg

<svg xmlns="http://www.w3.org/2000/svg" xmlns:xlink="http://www.w3.org/1999/xlink" height="763" width="603" version="1.0"><defs><radialGradient xlink:href="#a" id="b" gradientUnits="userSpaceOnUse" gradientTransform="matrix(1.21503 0 0 1.26667 -839.192 -490.49)" cx="858.042" cy="579.933" fx="858.042" fy="579.933" r="300"/><linearGradient id="a"><stop style="stop-color:#fff;stop-opacity:.3137255" offset="0"/><stop offset=".19" style="stop-color:#fff;stop-opacity:.25098041"/><stop style="stop-color:#6b6b6b;stop-opacity:.1254902" offset=".6"/><stop style="stop-color:#000;stop-opacity:.1254902" offset="1"/></linearGradient></defs><g style="opacity:1"><path d="M1.5 1.5v458.868c0 166.311 134.314 301.132 300 301.132s300-134.821 300-301.132V1.5H1.5z" style="opacity:1;fill:#fcef3c"/><path d="M1.5 460.368c0 .698.021 1.392.026 2.089L101.5 300.5l100 162 100-162 100 162 100-162 99.974 161.957c.005-.697.026-1.391.026-2.089V1.5H1.5v458.868z" style="opacity:1;fill:#2b5df2"/></g><g style="opacity:1"><path d="M1.5 460.368c0 .698.021 1.392.026 2.089L101.5 300.5l100 162 100-162 100 162 100-162 99.974 161.957c.005-.697.026-1.391.026-2.089" style="fill:none;stroke:#000;stroke-width:3;stroke-linecap:round;stroke-linejoin:round"/><path style="fill:#fcef3c;stroke:#000;stroke-width:3;stroke-linecap:round;stroke-linejoin:round" d="M232.5 35.431s17.856-2.555 27.245 11.93c5.643 8.706 1.128 15.154 9.673 19.991 8.544 4.836 12.639 13.37 12.639 22.564l-5.062 10.323-11.927-3.344s.803-11.327-9.999-16.164c-10.802-4.837-4.03-23.376-7.416-31.437-3.384-8.06-10.639-11.445-15.153-13.863zM370.5 287.571s-17.856 2.555-27.245-11.93c-5.643-8.706-1.129-15.154-9.673-19.991-8.545-4.836-12.64-13.37-12.64-22.564l5.063-10.323 11.928 3.344s-.804 11.327 9.997 16.164c10.802 4.836 4.031 23.376 7.417 31.437 3.384 8.06 10.638 11.445 15.153 13.863zM350.116 32.119s13.717 11.268 9.098 27.186c-2.777 9.568-10.582 10.384-8.548 19.602 2.035 9.217-1.636 17.56-8.509 23.365l-11.065 2.868-5.387-10.715s8.998-6.574 5.472-17.42c-3.527-10.844 14.809-17.668 18.597-25.2 3.786-7.532 1.519-14.902.342-19.686zM252.884 290.883s-13.718-11.267-9.098-27.185c2.776-9.569 10.582-10.385 8.548-19.602-2.035-9.218 1.637-17.561 8.51-23.366l11.064-2.867 5.388 10.715s-8.998 6.573-5.473 17.419c3.528 10.845-14.81 17.668-18.595 25.2-3.788 7.532-1.522 14.903-.344 19.686zM92.5 69.501s22.685-10.573 43.5 4.5c29 21 47.271 3.021 72.5 28.25 12.375 12.375 28.744 17.419 28.744 17.419l5.006 12.581-15.783 13.439s-18.842-8.314-29.717-19.189-21-15.75-38.75-15.75c-11.75 0-26.25-16-32.75-25.75s-21.5-15.5-32.75-15.5zM510.5 253.501s-22.685 10.573-43.5-4.5c-29-21-47.271-3.021-72.5-28.25-12.375-12.375-28.743-17.419-28.743-17.419l-5.007-12.581 15.783-13.439s18.842 8.314 29.717 19.189 21 15.75 38.75 15.75c11.75 0 26.25 16 32.75 25.75s21.5 15.5 32.75 15.5zM92.843 254.277s7.435-23.898 32.589-29.163c35.046-7.334 34.03-32.948 69.669-34.647 17.481-.833 32.224-9.554 32.224-9.554l12.677 4.758-.67 20.718s-18.826 8.351-34.189 9.083c-15.362.732-25.779 4.946-37.718 18.081-7.904 8.695-29.497 8.663-41.083 6.914-11.588-1.747-25.932 5.485-33.499 13.81zM510.156 68.725s-7.434 23.898-32.588 29.163c-35.046 7.334-34.031 32.948-69.67 34.648-17.481.833-32.224 9.553-32.224 9.553l-12.677-4.757.671-20.719s18.825-8.35 34.188-9.083c15.361-.732 25.78-4.946 37.719-18.081 7.903-8.695 29.496-8.663 41.084-6.915 11.586 1.748 25.93-5.484 33.497-13.809zM301.5 29.168s-6.289 37.919-13.145 56.793L301.5 99.105l13.145-13.145C307.789 67.087 301.5 29.168 301.5 29.168zM301.5 293.834s-6.289-37.919-13.145-56.793l13.145-13.145 13.145 13.145c-6.856 18.874-13.145 56.793-13.145 56.793zM180.667 40.668s49.625 58.52 58.124 76.713h18.589V98.792c-18.193-8.499-76.713-58.124-76.713-58.124z"/><path style="fill:#fcef3c;stroke:#000;stroke-width:3;stroke-linecap:round;stroke-linejoin:round" d="M180.667 282.334s58.52-49.625 76.713-58.124v-18.589h-18.589c-8.499 18.193-58.124 76.713-58.124 76.713zM422.333 40.668s-49.626 58.52-58.124 76.713H345.62V98.792c18.193-8.499 76.713-58.124 76.713-58.124zM422.333 282.334s-58.52-49.625-76.713-58.124v-18.589h18.589c8.498 18.193 58.124 76.713 58.124 76.713zM88.37 161.501s118.716 6.289 137.59 13.145l13.145-13.145-13.145-13.145c-18.874 6.856-137.59 13.145-137.59 13.145zM514.63 161.501s-118.717 6.289-137.59 13.145l-13.146-13.145 13.146-13.145c18.873 6.856 137.59 13.145 137.59 13.145z"/><circle style="fill:#fcef3c;stroke:#000;stroke-width:3;stroke-linecap:round;stroke-linejoin:round" cx="301.5" cy="161.501" r="76.667"/><path style="fill:none;stroke:#000;stroke-width:3;stroke-linecap:round;stroke-linejoin:round" d="M301.5 195.25s-19.768.018-21.82-2.034c2.311 2.516 4.095 6.06 6.32 8.285 3.75 3.75 8.125 5.75 15.5 5.75s11.75-2 15.5-5.75c2.225-2.225 4.009-5.769 6.319-8.285-2.051 2.053-21.819 2.034-21.819 2.034zM266.5 193.501s1.5-3.25 7.375-3.25c2.39 0 4.221 1.241 5.805 2.965M336.5 193.501s-1.5-3.25-7.375-3.25c-2.39 0-4.221 1.241-5.806 2.965M319.5 170.501s-5-4.167-9.167 0-5.833 5.5-8.833 5.5-4.666-1.333-8.833-5.5-9.167 0-9.167 0M295.833 132.168s0 19-2.667 24.667"/><path d="M333.834 126.834a8.666 8.666 0 0 0-8.666 8.667 8.666 8.666 0 1 0 17.332 0 8.666 8.666 0 0 0-8.666-8.667zm-64.668 0a8.666 8.666 0 0 0-8.666 8.667 8.666 8.666 0 1 0 17.332 0 8.666 8.666 0 0 0-8.666-8.667z"/><path style="fill:none;stroke:#000;stroke-width:3;stroke-linecap:round;stroke-linejoin:round" d="M318.167 126.168s17.667-11.333 26.667-2.333M284.833 126.168s-17.667-11.333-26.667-2.333"/></g><g style="display:inline"><path style="fill:url(#b);fill-opacity:1" d="M1.5 1.5v458.868c0 166.31 134.315 301.132 300 301.132s300-134.821 300-301.132V1.5H1.5z"/></g><g style="display:inline"><path style="fill:none;fill-opacity:1;stroke:#000;stroke-width:3;stroke-miterlimit:4;stroke-dasharray:none;stroke-opacity:1" d="M1.5 1.5v458.868c0 166.31 134.315 301.132 300 301.132s300-134.821 300-301.132V1.5H1.5z"/></g></svg>

<?xml version="1.0" encoding="UTF-8" standalone="no"?>
<svg
   xmlns:dc="http://purl.org/dc/elements/1.1/"
   xmlns:cc="http://creativecommons.org/ns#"
   xmlns:rdf="http://www.w3.org/1999/02/22-rdf-syntax-ns#"
   xmlns:svg="http://www.w3.org/2000/svg"
   xmlns="http://www.w3.org/2000/svg"
   xmlns:xlink="http://www.w3.org/1999/xlink"
   xmlns:sodipodi="http://sodipodi.sourceforge.net/DTD/sodipodi-0.dtd"
   xmlns:inkscape="http://www.inkscape.org/namespaces/inkscape"
   height="763"
   width="603"
   version="1.0"
   id="svg20"
   sodipodi:version="0.32"
   inkscape:version="0.46"
   sodipodi:docname="Porza-coat_of_arms.svg"
   sodipodi:docbase="C:\Documents and Settings\Steve\Bureau\Blason Villages Suisse pour Wikipédia (par Delta-9)"
   inkscape:output_extension="org.inkscape.output.svg.inkscape">
  <metadata
     id="metadata31">
    <rdf:RDF>
      <cc:Work
         rdf:about="">
        <dc:format>image/svg+xml</dc:format>
        <dc:type
           rdf:resource="http://purl.org/dc/dcmitype/StillImage" />
        <dc:date>07-AUG-2006</dc:date>
        <dc:creator>
          <cc:Agent>
            <dc:title>Jérôme BLUM (wagner51)</dc:title>
          </cc:Agent>
        </dc:creator>
        <cc:license
           rdf:resource="http://creativecommons.org/licenses/GPL/2.0/" />
        <dc:coverage />
        <dc:description>Gabarit pour le Projet:Blasons de WIkipédia</dc:description>
        <dc:subject>
          <rdf:Bag>
            <rdf:li>blason suisse modèle gabarit projet blasons</rdf:li>
          </rdf:Bag>
        </dc:subject>
        <dc:language>fr</dc:language>
        <dc:title>Gabrit d'un blason suisse</dc:title>
      </cc:Work>
      <cc:License
         rdf:about="http://creativecommons.org/licenses/GPL/2.0/">
        <cc:permits
           rdf:resource="http://web.resource.org/cc/Reproduction" />
        <cc:permits
           rdf:resource="http://web.resource.org/cc/Distribution" />
        <cc:requires
           rdf:resource="http://web.resource.org/cc/Notice" />
        <cc:permits
           rdf:resource="http://web.resource.org/cc/DerivativeWorks" />
        <cc:requires
           rdf:resource="http://web.resource.org/cc/ShareAlike" />
        <cc:requires
           rdf:resource="http://web.resource.org/cc/SourceCode" />
      </cc:License>
    </rdf:RDF>
  </metadata>
  <defs
     id="defs29"><inkscape:perspective
   sodipodi:type="inkscape:persp3d"
   inkscape:vp_x="0 : 381.5 : 1"
   inkscape:vp_y="0 : 1000 : 0"
   inkscape:vp_z="603 : 381.5 : 1"
   inkscape:persp3d-origin="301.5 : 254.33333 : 1"
   id="perspective28" />
<linearGradient
   id="linearGradient2893">
  <stop
     style="stop-color:#ffffff;stop-opacity:0.3137255;"
     offset="0"
     id="stop2895" />
  <stop
     id="stop2897"
     offset="0.19"
     style="stop-color:#ffffff;stop-opacity:0.25098041;" />
  <stop
     style="stop-color:#6b6b6b;stop-opacity:0.1254902;"
     offset="0.60000002"
     id="stop2901" />
  <stop
     style="stop-color:#000000;stop-opacity:0.1254902;"
     offset="1"
     id="stop2899" />
</linearGradient>
<linearGradient
   id="linearGradient2955">
  <stop
     style="stop-color:white;stop-opacity:0;"
     offset="0"
     id="stop2965" />
  <stop
     style="stop-color:black;stop-opacity:0.64583331;"
     offset="1"
     id="stop2959" />
</linearGradient>
<radialGradient
   inkscape:collect="always"
   xlink:href="#linearGradient2893"
   id="radialGradient3236"
   gradientUnits="userSpaceOnUse"
   gradientTransform="matrix(1.215027,1.531577e-24,1.464684e-23,1.266667,-839.1924,-490.4894)"
   cx="858.04236"
   cy="579.93323"
   fx="858.04236"
   fy="579.93323"
   r="300" />
<inkscape:perspective
   id="perspective2623"
   inkscape:persp3d-origin="306 : 264 : 1"
   inkscape:vp_z="612 : 396 : 1"
   inkscape:vp_y="0 : 1000 : 0"
   inkscape:vp_x="0 : 396 : 1"
   sodipodi:type="inkscape:persp3d" />

	
	

	
	

		
		
	
			
				
			
			
			
			
			
			
			
			
		
			
			
			
		
				
				
				
			
				
				
			
				
				
			
					
					
				
					
					
				
					
					
				
					
					
				
					
					
				
					
					
					
					
				
					
					
				</defs>
  <sodipodi:namedview
     inkscape:window-height="691"
     inkscape:window-width="939"
     inkscape:pageshadow="2"
     inkscape:pageopacity="0.0"
     guidetolerance="10.0"
     gridtolerance="10.0"
     objecttolerance="10.0"
     borderopacity="1.0"
     bordercolor="#666666"
     pagecolor="#ffffff"
     id="base"
     inkscape:zoom="0.48798614"
     inkscape:cx="479.99994"
     inkscape:cy="416.9246"
     inkscape:window-x="171"
     inkscape:window-y="41"
     inkscape:current-layer="layer2"
     showgrid="false"
     showguides="true"
     inkscape:guide-bbox="true">
    <sodipodi:guide
       orientation="horizontal"
       position="761.5"
       id="guide1885" />
    <sodipodi:guide
       orientation="vertical"
       position="1.5"
       id="guide1887" />
    <sodipodi:guide
       orientation="horizontal"
       position="1.5"
       id="guide1889" />
    <sodipodi:guide
       orientation="vertical"
       position="601.5"
       id="guide1891" />
    <sodipodi:guide
       orientation="vertical"
       position="301.50081"
       id="guide1893" />
  </sodipodi:namedview>
  <desc
     id="desc22">Coat of Arms of Canton of Freiburg (Fribourg)</desc>
  <g
     inkscape:groupmode="layer"
     id="layer1"
     inkscape:label="Fond écu"
     style="opacity:1"
     sodipodi:insensitive="true">
    <path
       d="M 1.5,1.5 L 1.5,460.368 C 1.5,626.679 135.814,761.5 301.5,761.5 C 467.186,761.5 601.5,626.679 601.5,460.368 L 601.5,1.5 L 1.5,1.5 z"
       id="path2630"
       style="opacity:1;fill:#fcef3c" />
    <path
       id="path2536"
       d="M 1.5,460.368 C 1.5,461.066 1.521,461.76 1.526,462.457 L 101.5,300.5 L 201.5,462.5 L 301.5,300.5 L 401.5,462.5 L 501.5,300.5 L 601.474,462.457 C 601.479,461.76 601.5,461.066 601.5,460.368 L 601.5,1.5 L 1.5,1.5 L 1.5,460.368 z"
       style="opacity:1;fill:#2b5df2" />
  </g>
  <g
     inkscape:groupmode="layer"
     id="layer2"
     inkscape:label="Meubles"
     style="opacity:1"
     sodipodi:insensitive="true">
    <path
       id="path2540"
       d="M 1.5,460.368 C 1.5,461.066 1.521,461.76 1.526,462.457 L 101.5,300.5 L 201.5,462.5 L 301.5,300.5 L 401.5,462.5 L 501.5,300.5 L 601.474,462.457 C 601.479,461.76 601.5,461.066 601.5,460.368"
       style="fill:none;stroke:#000000;stroke-width:3;stroke-linecap:round;stroke-linejoin:round" />
    <g
       id="g2870">
      <path
         style="fill:#fcef3c;stroke:#000000;stroke-width:3;stroke-linecap:round;stroke-linejoin:round"
         d="M 232.5,35.431 C 232.5,35.431 250.356,32.876 259.745,47.361 C 265.388,56.067 260.873,62.515 269.418,67.352 C 277.962,72.188 282.057,80.722 282.057,89.916 L 276.995,100.239 L 265.068,96.895 C 265.068,96.895 265.871,85.568 255.069,80.731 C 244.267,75.894 251.039,57.355 247.653,49.294 C 244.269,41.234 237.014,37.849 232.5,35.431 z"
         id="path2550" />
      <path
         style="fill:#fcef3c;stroke:#000000;stroke-width:3;stroke-linecap:round;stroke-linejoin:round"
         d="M 370.5,287.571 C 370.5,287.571 352.644,290.126 343.255,275.641 C 337.612,266.935 342.126,260.487 333.582,255.65 C 325.037,250.814 320.942,242.28 320.942,233.086 L 326.005,222.763 L 337.933,226.107 C 337.933,226.107 337.129,237.434 347.93,242.271 C 358.732,247.107 351.961,265.647 355.347,273.708 C 358.731,281.768 365.985,285.153 370.5,287.571 z"
         id="path2552" />
      <path
         style="fill:#fcef3c;stroke:#000000;stroke-width:3;stroke-linecap:round;stroke-linejoin:round"
         d="M 350.116,32.119 C 350.116,32.119 363.833,43.387 359.214,59.305 C 356.437,68.873 348.632,69.689 350.666,78.907 C 352.701,88.124 349.03,96.467 342.157,102.272 L 331.092,105.14 L 325.705,94.425 C 325.705,94.425 334.703,87.851 331.177,77.005 C 327.65,66.161 345.986,59.337 349.774,51.805 C 353.56,44.273 351.293,36.903 350.116,32.119 z"
         id="path2556" />
      <path
         style="fill:#fcef3c;stroke:#000000;stroke-width:3;stroke-linecap:round;stroke-linejoin:round"
         d="M 252.884,290.883 C 252.884,290.883 239.166,279.616 243.786,263.698 C 246.562,254.129 254.368,253.313 252.334,244.096 C 250.299,234.878 253.971,226.535 260.844,220.73 L 271.908,217.863 L 277.296,228.578 C 277.296,228.578 268.298,235.151 271.823,245.997 C 275.351,256.842 257.013,263.665 253.228,271.197 C 249.44,278.729 251.706,286.1 252.884,290.883 z"
         id="path2558" />
      <path
         style="fill:#fcef3c;stroke:#000000;stroke-width:3;stroke-linecap:round;stroke-linejoin:round"
         d="M 92.5,69.501 C 92.5,69.501 115.185,58.928 136,74.001 C 165,95.001 183.271,77.022 208.5,102.251 C 220.875,114.626 237.244,119.67 237.244,119.67 L 242.25,132.251 L 226.467,145.69 C 226.467,145.69 207.625,137.376 196.75,126.501 C 185.875,115.626 175.75,110.751 158,110.751 C 146.25,110.751 131.75,94.751 125.25,85.001 C 118.75,75.251 103.75,69.501 92.5,69.501 z"
         id="path2564" />
      <path
         style="fill:#fcef3c;stroke:#000000;stroke-width:3;stroke-linecap:round;stroke-linejoin:round"
         d="M 510.5,253.501 C 510.5,253.501 487.815,264.074 467,249.001 C 438,228.001 419.729,245.98 394.5,220.751 C 382.125,208.376 365.757,203.332 365.757,203.332 L 360.75,190.751 L 376.533,177.312 C 376.533,177.312 395.375,185.626 406.25,196.501 C 417.125,207.376 427.25,212.251 445,212.251 C 456.75,212.251 471.25,228.251 477.75,238.001 C 484.25,247.751 499.25,253.501 510.5,253.501 z"
         id="path2566" />
      <path
         style="fill:#fcef3c;stroke:#000000;stroke-width:3;stroke-linecap:round;stroke-linejoin:round"
         d="M 92.843,254.277 C 92.843,254.277 100.278,230.379 125.432,225.114 C 160.478,217.78 159.462,192.166 195.101,190.467 C 212.582,189.634 227.325,180.913 227.325,180.913 L 240.002,185.671 L 239.332,206.389 C 239.332,206.389 220.506,214.74 205.143,215.472 C 189.781,216.204 179.364,220.418 167.425,233.553 C 159.521,242.248 137.928,242.216 126.342,240.467 C 114.754,238.72 100.41,245.952 92.843,254.277 z"
         id="path2570" />
      <path
         style="fill:#fcef3c;stroke:#000000;stroke-width:3;stroke-linecap:round;stroke-linejoin:round"
         d="M 510.156,68.725 C 510.156,68.725 502.722,92.623 477.568,97.888 C 442.522,105.222 443.537,130.836 407.898,132.536 C 390.417,133.369 375.674,142.089 375.674,142.089 L 362.997,137.332 L 363.668,116.613 C 363.668,116.613 382.493,108.263 397.856,107.53 C 413.217,106.798 423.636,102.584 435.575,89.449 C 443.478,80.754 465.071,80.786 476.659,82.534 C 488.245,84.282 502.589,77.05 510.156,68.725 z"
         id="path2572" />
      <path
         style="fill:#fcef3c;stroke:#000000;stroke-width:3;stroke-linecap:round;stroke-linejoin:round"
         d="M 301.5,29.168 C 301.5,29.168 295.211,67.087 288.355,85.961 L 301.5,99.105 L 314.645,85.96 C 307.789,67.087 301.5,29.168 301.5,29.168 z"
         id="path2578" />
      <path
         style="fill:#fcef3c;stroke:#000000;stroke-width:3;stroke-linecap:round;stroke-linejoin:round"
         d="M 301.5,293.834 C 301.5,293.834 295.211,255.915 288.355,237.041 L 301.5,223.896 L 314.645,237.041 C 307.789,255.915 301.5,293.834 301.5,293.834 z"
         id="path2580" />
      <path
         style="fill:#fcef3c;stroke:#000000;stroke-width:3;stroke-linecap:round;stroke-linejoin:round"
         d="M 180.667,40.668 C 180.667,40.668 230.292,99.188 238.791,117.381 L 257.38,117.381 L 257.38,98.792 C 239.187,90.293 180.667,40.668 180.667,40.668 z"
         id="path2584" />
      <path
         style="fill:#fcef3c;stroke:#000000;stroke-width:3;stroke-linecap:round;stroke-linejoin:round"
         d="M 180.667,282.334 C 180.667,282.334 239.187,232.709 257.38,224.21 L 257.38,205.621 L 238.791,205.621 C 230.292,223.814 180.667,282.334 180.667,282.334 z"
         id="path2586" />
      <path
         style="fill:#fcef3c;stroke:#000000;stroke-width:3;stroke-linecap:round;stroke-linejoin:round"
         d="M 422.333,40.668 C 422.333,40.668 372.707,99.188 364.209,117.381 L 345.62,117.381 L 345.62,98.792 C 363.813,90.293 422.333,40.668 422.333,40.668 z"
         id="path2588" />
      <path
         style="fill:#fcef3c;stroke:#000000;stroke-width:3;stroke-linecap:round;stroke-linejoin:round"
         d="M 422.333,282.334 C 422.333,282.334 363.813,232.709 345.62,224.21 L 345.62,205.621 L 364.209,205.621 C 372.707,223.814 422.333,282.334 422.333,282.334 z"
         id="path2590" />
      <path
         style="fill:#fcef3c;stroke:#000000;stroke-width:3;stroke-linecap:round;stroke-linejoin:round"
         d="M 88.37,161.501 C 88.37,161.501 207.086,167.79 225.96,174.646 L 239.105,161.501 L 225.96,148.356 C 207.086,155.212 88.37,161.501 88.37,161.501 z"
         id="path2594" />
      <path
         style="fill:#fcef3c;stroke:#000000;stroke-width:3;stroke-linecap:round;stroke-linejoin:round"
         d="M 514.63,161.501 C 514.63,161.501 395.913,167.79 377.04,174.646 L 363.894,161.501 L 377.04,148.356 C 395.913,155.212 514.63,161.501 514.63,161.501 z"
         id="path2596" />
      <circle
         style="fill:#fcef3c;stroke:#000000;stroke-width:3;stroke-linecap:round;stroke-linejoin:round"
         sodipodi:ry="76.667"
         sodipodi:rx="76.667"
         sodipodi:cy="161.50101"
         sodipodi:cx="301.5"
         cx="301.5"
         cy="161.50101"
         r="76.667"
         id="circle2600" />
      <path
         style="fill:none;stroke:#000000;stroke-width:3;stroke-linecap:round;stroke-linejoin:round"
         d="M 301.5,195.25 C 301.5,195.25 281.732,195.268 279.68,193.216 C 281.991,195.732 283.775,199.276 286,201.501 C 289.75,205.251 294.125,207.251 301.5,207.251 C 308.875,207.251 313.25,205.251 317,201.501 C 319.225,199.276 321.009,195.732 323.319,193.216 C 321.268,195.269 301.5,195.25 301.5,195.25 z"
         id="path2602" />
      <path
         style="fill:none;stroke:#000000;stroke-width:3;stroke-linecap:round;stroke-linejoin:round"
         d="M 266.5,193.501 C 266.5,193.501 268,190.251 273.875,190.251 C 276.265,190.251 278.096,191.492 279.68,193.216"
         id="path2604" />
      <path
         style="fill:none;stroke:#000000;stroke-width:3;stroke-linecap:round;stroke-linejoin:round"
         d="M 336.5,193.501 C 336.5,193.501 335,190.251 329.125,190.251 C 326.735,190.251 324.904,191.492 323.319,193.216"
         id="path2606" />
      <path
         style="fill:none;stroke:#000000;stroke-width:3;stroke-linecap:round;stroke-linejoin:round"
         d="M 319.5,170.501 C 319.5,170.501 314.5,166.334 310.333,170.501 C 306.166,174.668 304.5,176.001 301.5,176.001 C 298.5,176.001 296.834,174.668 292.667,170.501 C 288.5,166.334 283.5,170.501 283.5,170.501"
         id="path2608" />
      <path
         style="fill:none;stroke:#000000;stroke-width:3;stroke-linecap:round;stroke-linejoin:round"
         d="M 295.833,132.168 C 295.833,132.168 295.833,151.168 293.166,156.835"
         id="path2610" />
      <path
         d="M 333.834,126.834 C 329.048,126.834 325.168,130.714 325.168,135.501 C 325.168,140.288 329.048,144.168 333.834,144.168 C 338.62,144.168 342.5,140.288 342.5,135.501 C 342.5,130.714 338.62,126.834 333.834,126.834 z M 269.166,126.834 C 264.38,126.834 260.5,130.714 260.5,135.501 C 260.5,140.288 264.38,144.168 269.166,144.168 C 273.952,144.168 277.832,140.288 277.832,135.501 C 277.832,130.714 273.952,126.834 269.166,126.834 z"
         id="path2612" />
      <path
         style="fill:none;stroke:#000000;stroke-width:3;stroke-linecap:round;stroke-linejoin:round"
         d="M 318.167,126.168 C 318.167,126.168 335.834,114.835 344.834,123.835"
         id="path2614" />
      <path
         style="fill:none;stroke:#000000;stroke-width:3;stroke-linecap:round;stroke-linejoin:round"
         d="M 284.833,126.168 C 284.833,126.168 267.166,114.835 258.166,123.835"
         id="path2616" />
    </g>
  </g>
  <g
     inkscape:groupmode="layer"
     id="layer3"
     inkscape:label="Reflet final"
     style="display:inline"
     sodipodi:insensitive="true">
    <path
       style="fill:url(#radialGradient3236);fill-opacity:1"
       d="M 1.5,1.5 L 1.5,460.3679 C 1.5,626.67854 135.81454,761.5 301.49993,761.5 C 467.1854,761.5 601.5,626.67854 601.5,460.3679 L 601.5,1.5 L 1.5,1.5 z "
       id="path2346" />
  </g>
  <g
     inkscape:groupmode="layer"
     id="layer4"
     inkscape:label="Contour final"
     style="display:inline"
     sodipodi:insensitive="true">
    <path
       style="fill:none;fill-opacity:1;stroke:#000000;stroke-width:3;stroke-miterlimit:4;stroke-dasharray:none;stroke-opacity:1"
       d="M 1.5,1.5 L 1.5,460.36794 C 1.5,626.67854 135.81454,761.5 301.49993,761.5 C 467.1854,761.5 601.5,626.67854 601.5,460.36794 L 601.5,1.5 L 1.5,1.5 z "
       id="path3239" />
  </g>
</svg>
